X:658
T:Negro Jig
B:Kerr's Merry Melodies for the Piano (n.d.)
Z:Nigel Gatherer
L:1/8
M:4/4
K:Am
A>Bc>d e>fd>f | e>fd>f e>dc>B | A>Bc>d e>fd>f | eaa>^g a>ec>B |
A>Bc>d e>fd>f | e>fd>f e>dc>B | A>Bc>d e>fd>f | eaa>^g a2    ||
e2 | a>^ga>b a>=ge>^f | g^fga g>ed>B | a>^ga>b a>=ge>^f |\
g>ed>B A2 Ae |
a>^ga>b a>=ge>^f | g^fga g>ed>B | c'>ab>^g a>ef>d |\
 e>cd>B A>G E2 |]
<end>
<start>
